X: 2
T: Portsmouth
R: hornpipe
M: 4/4
L: 1/8
K: Fmaj
|:C2|F3G AGFE|D4 d3e|f3c dcBA|G6 C2|
F3G AGFE|D4 d4|cdcA GFGA|F6:|
|:c2|f3g agfe|d3c A2GF|f2c2 dcBA|G6 C2|
F3G AGFE|D4 d4|cdcA GFGA|F6:|

